X:1
T:Title
%%score [ ( 1 2 ) ( 3 4 ) ]
L:1/8
Q:1/4=180
M:3/4
K:C
V:1 treble-8 nm="Tenor I/II"
V:2 treble-8 
V:3 bass nm="Bass I/II"
V:4 bass 
V:1
"^Slow waltz time" z2 | e4 e2 | _e4 e2 | c2 =e3 ^d | e4 z2 | e4 e2 | d4 d2 | c4 ^c2 | d4 dd | %9
w: |||||||||
w: |||* * Hm|_|||* a|kiss, * *|
 f4 f2 | d4 f2 | f2 f3 (e | f4) dd | f4 f2 | ^f4 f2 | g2 e3 e | (^d2 e2) z2 | e4 e2 | _e4 e2 | %19
w: ||||||||||
w: ||* * Hm|_ _ _|||* needs a|miss, _|_ _||
 c2 =e3 (^d | e4) z2 | e4 e2 | g4 e2 | f2 e3 d | (^c2 d2) z2 | ^c4 c2 | A4 ^c2 | (=c4 c2) | ^f6 | %29
w: ||||||||||
w: * * Hm|_|||* need the|dew, _|_ _||||
 g4 =f2 | f4 f2 | (e4 f2 | !fermata!e4) |] %33
w: ||||
w: ||||
V:2
 EG | d4 c2 | B4 A2 | E2 G4- | G4 EG | d4 c2 | B4 ^G2 | A6- | A4 ^GA | c4 B2 | F4 G2 | c2 B4- | %12
w: Like the|ro- ses|need their|frag- rance,|_ Like a|sweet- heart|needs a|kiss,|_ Like the|sum- mer|needs the|sun- shine,|
 B4 ^GA | c4 B2 | c4 B2 | E6 | z2 z2 EG | d4 c2 | B4 A2 | E2 G4- | G4 EG | d4 c2 | e4 d2 | A6- | %24
w: _ Like a|lad- die|needs a|miss,|Like a|bro- ken|heart needs|glad- ness,|_ Like the|flow- ers|need the|dew,|
 A4 ^GA | f4 e2 | ^c4 A2 | (^F4 A2) | d6 | e4 d2 | G4 d2 | c6- | !fermata!c4 |] %33
w: _ Like a|ba- by|needs its|moth- *|er,|That's How|I Need|You.|_|
V:3
 z2 | G,4 G,2 | ^F,4 F,2 | G,2 C3 (B, | C4) z2 | G,4 G,2 | ^G,4 E,2 | F,4 G,2 | F,4 F,F, | %9
w: |||* * Hm|_|||* a|kiss, * *|
w: |||||||* a|kiss, * *|
 A,4 G,2 | B,4 B,2 | A,2 G,4- | G,4 F,F, | A,4 G,2 | A,4 A,2 | C2 C3 C | C4 z2 | G,4 G,2 | %18
w: ||||||* needs a|miss,||
w: |||||||||
 ^F,4 F,2 | G,2 C3 (B, | C4) z2 | G,4 G,2 | _B,4 B,2 | C2 C3 C | (G,2 F,2) z2 | A,4 G,2 | G,4 G,2 | %27
w: |* * Hm|_|||* need the|dew, _|_ _||
w: |||||||||
 (A,4 ^F,2) | (C2 B,2 A,2) | B,4 B,2 | B,4 B,2 | (G,4 A,2 | !fermata!G,4) |] %33
w: ||||||
w: ||||||
V:4
 x2 | C,4 C,2 | C,4 C,2 | C,2 C,4- | C,4 x2 | C,4 C,2 | E,4 E,2 | F,4 E,2 | D,4 D,D, | D,4 D,2 | %10
w: ||||||||||
w: ||||||||||
 G,,4 G,,2 | D,2 D,3 (^C, | D,4) D,D, | D,4 D,2 | _E,4 E,2 | G,2 A,3 G, | (^F,2 G,2) x2 | C,4 C,2 | %18
w: ||||||||
w: |* * Hm|_ _ _|||* needs a|miss, _|_ _|
 C,4 C,2 | C,2 C,4- | C,4 x2 | C,4 C,2 | C,4 C,2 | F,2 G,3 F, | (E,2 F,2) x2 | A,,4 A,,2 | %26
w: ||||||||
w: |||||* need the|dew, _|_ _|
 E,4 E,2 | (D,4 D,2) | D,6 | G,4 G,2 | D,4 G,2 | C,6- | !fermata!C,4 |] %33
w: |||||||
w: |||||||

